X: 41676
T: Upton-on-Severn
R: jig
M: 6/8
K: Gmajor
|:d|dBB BAG|AGA BGE|DGG GBd|edB A2 d|
dBB BAG|AGA BGE|DGG GAB|AGF G2:|
|:G|GBd g2 g|edc BcA|GBd g2 g|edB A2 A|
GBd g2 g|edc Bcd|ege dBG|AGF G2:|

